X:643
T: "Einladung zur Kirchweihe"
N: Z1324
O: Europa, Mitteleuropa, Deutschland, Bayern
R: Zech -, Schalks - Lied
M: 3/4
L: 1/8
K: D
FA | dFAGFd | cEGF
Ec | eEGFEc | d2z2
FA | dFAGFd | cEGF
Ec | eEGFEc | d2z2
AA | Acegfe | dFAG
Fd | cEGFEc | d2z2
AA | Acegfe | dFAG
Fd | cEGFEc | d2z2

